X: 1054
T: The Bunch of Roses
R:double jig
N:"collected by F.O'Neill"
B:O'Neill's 1054
Z:Transcribed by henrik.norbeck@mailbox.swipnet.se
M:6/8
L:1/8
K:Gm
d/c/|B2B Bcd|c2A ABc|B2G GAB|AFD DGA|
B2B Bcd|c2A ABc|BAG AG^F|G3 G2:|
d/=e/|f2d d=e^f|g2d dcA|G2f f2g|afd d2=e|
fga gf=e|f_ed cBA|GAB AG^F|G3 G2:|


